X: 10591
Q: "Lively."
M: 6/8
L: 1/8
K: D
[|\
dfe dfe | d2A {B}G2F | B2A {A}G2F | EDE D2z |\
dfe dfe | dABcde | f^ga efd | cdB A2z |\
efe f2e | B2c d2e | fgf a2d | {d}c2d {f}e2 |]
dcB A2A | AdA AdA | edc c2A | AeA AeA |\
def fed | dcB  B2B | efg gfe | edc c2a |\
aAa aAg | {g}f2e f2a | aAa aAg | {g}f2e d2z |]


